!!!OTL: AUS DEM KARLSRUH MUSS ICH REISEN, AUS DER ALLERSCHOENSTEN STADT
!!!ARE: Europa, Mitteleuropa, Deutschland, Baden
!!!SCT: Z0248
!!!YEM: Copyright 1995, estate of Helmut Schaffrath.
**kern
*ICvox
*Ivox
*M3/4
*k[f#]
*G:
{8g
8b
=1
4.dd
8gg
8dd
8cc
=2
8cc
8b
4b}
{8a
8b
=3
8dd
8cc
4cc
8b
8g
=4
4a
4r}
{8a
8b
=5
4.cc
8b
8b
8a
=6
8a
8g
4g}
{12dd
12ee
12ff#
=7
8gg
8dd
4b
8a
8a
=8
2g}
{8a
8b
=9
4.cc
8b
8b
8a
=10
8a
8g
4g}
{12dd
12ee
12ff#
=11
8gg
8dd
4b
8a
8a
=12
2g}
==
!!!AGN: Handwerker - Lied, Wanderschaft
!!!ONB: ESAC (Essen Associative Code) Database: ZUCCAL
!!!AMT: simple triple
!!!AIN: vox
!!!EED: Helmut Schaffrath
!!!EEV: 1.0
*-
